www/assets/icons/move_up.svg

<svg xmlns="http://www.w3.org/2000/svg" width="24" height="24" viewBox="0 0 24 24" fill='currentColor'><path d="M3.5 13.5c0-2.45 1.76-4.47 4.08-4.91l-1.49 1.5L7.5 11.5l4-4.01-4-3.99-1.41 1.41 1.58 1.58v.06A7.007 7.007 0 0 0 1.5 13.5c0 3.87 3.13 7 7 7h3v-2h-3c-2.76 0-5-2.24-5-5m10 0v7h9v-7zm7 5h-5v-3h5zm2-14h-9v7h9z"/></svg>

<svg width="24" height="24" viewBox="0 0 24 24" xmlns="http://www.w3.org/2000/svg" fill='currentColor'><path d="M3.5 13.5C3.5 11.05 5.26 9.03 7.58 8.59L6.09 10.09L7.5 11.5L11.5 7.49L7.5 3.5L6.09 4.91L7.67 6.49V6.55C4.2 6.96 1.5 9.92 1.5 13.5C1.5 17.37 4.63 20.5 8.5 20.5H11.5V18.5H8.5C5.74 18.5 3.5 16.26 3.5 13.5Z"/><path d="M13.5 13.5V20.5H22.5V13.5H13.5ZM20.5 18.5H15.5V15.5H20.5V18.5Z"/><path d="M22.5 4.5H13.5V11.5H22.5V4.5Z"/></svg>
